dist/icons/classic/vscodeignore.svg

<svg id="Layer_2_1_" xmlns="http://www.w3.org/2000/svg" viewBox="0 0 72 100"><linearGradient id="SVGID_1_" gradientUnits="userSpaceOnUse" x1="36" y1="97.8" x2="36" y2="-.2" gradientTransform="translate(0 1)"><stop offset="0" stop-color="#c8d4db"/><stop offset=".139" stop-color="#d8e1e6"/><stop offset=".359" stop-color="#ebf0f3"/><stop offset=".617" stop-color="#f9fafb"/><stop offset="1" stop-color="#fff"/></linearGradient><path d="M45 .8l27 26.7v71.3H0V.8h45z" fill="url(#SVGID_1_)"/><path d="M45 .8l27 26.7v71.3H0V.8h45z" fill-opacity="0" stroke="#7191a1" stroke-width="2"/><linearGradient id="SVGID_2_" gradientUnits="userSpaceOnUse" x1="35.722" y1="22.496" x2="35.722" y2="68.104" gradientTransform="matrix(1 0 0 -1 0 100)"><stop offset="0" stop-color="#adccdc"/><stop offset="1" stop-color="#4c6c7b"/></linearGradient><path d="M28.2 57.6c-1.4 1-2.7 2.1-4 3.1-2.7 2-5.3 4.1-8 6.1-.4.3-.6.3-1 .1-.5-.3-1.1-.6-1.7-.9-.3-.2-.4-.4-.4-.7V44.1c0-.2.2-.6.4-.7.6-.4 1.3-.7 1.9-1 .3-.2.6 0 .9.2 2.2 1.7 4.4 3.4 6.6 5 1.8 1.4 3.6 2.8 5.4 4.1.1-.1.3-.2.4-.3 6.6-6.4 13.2-12.8 19.7-19.2.3-.3.6-.4 1-.2 2.8 1.1 5.6 2.2 8.4 3.4.2.1.4.4.5.6.1.1 0 .3 0 .5V73c0 .9 0 .9-.9 1.2-2.7 1.1-5.3 2.1-7.9 3.2-.5.2-.8.1-1.1-.2-6.5-6.4-13-12.7-19.6-19l-.6-.6zm19 5.8V46c-3.9 2.9-7.7 5.8-11.6 8.7 3.9 2.9 7.7 5.8 11.6 8.7zm-24.3-8.7c-1.9-1.7-3.8-3.4-5.8-5.2v10.4c1.9-1.7 3.8-3.5 5.8-5.2z" opacity=".8" fill="url(#SVGID_2_)"/><linearGradient id="SVGID_3_" gradientUnits="userSpaceOnUse" x1="45.075" y1="26.575" x2="58.575" y2="13.075" gradientTransform="translate(0 1)"><stop offset="0" stop-color="#fff"/><stop offset=".35" stop-color="#fafbfb"/><stop offset=".532" stop-color="#edf1f4"/><stop offset=".675" stop-color="#dde5e9"/><stop offset=".799" stop-color="#c7d3da"/><stop offset=".908" stop-color="#adbdc7"/><stop offset="1" stop-color="#92a5b0"/></linearGradient><path d="M45 .8l27 26.7H45V.8z" fill="url(#SVGID_3_)"/><path d="M45 .8l27 26.7H45V.8z" fill-opacity="0" stroke="#7191a1" stroke-width="2" stroke-linejoin="bevel"/></svg>

<?xml version="1.0" encoding="utf-8"?>
<svg version="1.1" id="Layer_2_1_" xmlns="http://www.w3.org/2000/svg" xmlns:xlink="http://www.w3.org/1999/xlink" x="0px" y="0px" viewBox="0 0 72 100" style="enable-background:new 0 0 72 100;" xml:space="preserve">
    <style type="text/css">
	.st0{fill:url(#SVGID_1_);}
	.st1{fill-opacity:0;stroke:#7191A1;stroke-width:2;}
	.st2{opacity:0.8;fill:url(#SVGID_2_);}
	.st3{fill:url(#SVGID_3_);}
	.st4{fill-opacity:0;stroke:#7191A1;stroke-width:2;stroke-linejoin:bevel;}
</style>
    <g>
        <linearGradient id="SVGID_1_" gradientUnits="userSpaceOnUse" x1="36" y1="97.8" x2="36" y2="-0.2" gradientTransform="matrix(1 0 0 1 0 1)">
            <stop offset="0" style="stop-color:#C8D4DB"></stop>
            <stop offset="0.139" style="stop-color:#D8E1E6"></stop>
            <stop offset="0.359" style="stop-color:#EBF0F3"></stop>
            <stop offset="0.617" style="stop-color:#F9FAFB"></stop>
            <stop offset="1" style="stop-color:#FFFFFF"></stop>
        </linearGradient>
        <path class="st0" d="M45,0.8l27,26.7v71.3H0v-98C0,0.8,45,0.8,45,0.8z"></path>
        <path class="st1" d="M45,0.8l27,26.7v71.3H0v-98C0,0.8,45,0.8,45,0.8z"></path>
    </g>
    <linearGradient id="SVGID_2_" gradientUnits="userSpaceOnUse" x1="35.7222" y1="22.496" x2="35.7222" y2="68.1041" gradientTransform="matrix(1 0 0 -1 0 100)">
        <stop offset="0" style="stop-color:#ADCCDC"></stop>
        <stop offset="1" style="stop-color:#4C6C7B"></stop>
    </linearGradient>
    <path class="st2" d="M28.2,57.6c-1.4,1-2.7,2.1-4,3.1c-2.7,2-5.3,4.1-8,6.1c-0.4,0.3-0.6,0.3-1,0.1c-0.5-0.3-1.1-0.6-1.7-0.9
	c-0.3-0.2-0.4-0.4-0.4-0.7c0-7.1,0-14.1,0-21.2c0-0.2,0.2-0.6,0.4-0.7c0.6-0.4,1.3-0.7,1.9-1c0.3-0.2,0.6,0,0.9,0.2
	c2.2,1.7,4.4,3.4,6.6,5c1.8,1.4,3.6,2.8,5.4,4.1c0.1-0.1,0.3-0.2,0.4-0.3c6.6-6.4,13.2-12.8,19.7-19.2c0.3-0.3,0.6-0.4,1-0.2
	c2.8,1.1,5.6,2.2,8.4,3.4c0.2,0.1,0.4,0.4,0.5,0.6c0.1,0.1,0,0.3,0,0.5c0,12.2,0,24.3,0,36.5c0,0.9,0,0.9-0.9,1.2
	c-2.7,1.1-5.3,2.1-7.9,3.2c-0.5,0.2-0.8,0.1-1.1-0.2c-6.5-6.4-13-12.7-19.6-19C28.6,58,28.4,57.8,28.2,57.6z M47.2,63.4
	c0-5.8,0-11.6,0-17.4c-3.9,2.9-7.7,5.8-11.6,8.7C39.5,57.6,43.3,60.5,47.2,63.4z M22.9,54.7c-1.9-1.7-3.8-3.4-5.8-5.2
	c0,3.5,0,6.9,0,10.4C19,58.2,20.9,56.4,22.9,54.7z"></path>
    <g>
        <linearGradient id="SVGID_3_" gradientUnits="userSpaceOnUse" x1="45.075" y1="26.575" x2="58.575" y2="13.075" gradientTransform="matrix(1 0 0 1 0 1)">
            <stop offset="0" style="stop-color:#FFFFFF"></stop>
            <stop offset="0.35" style="stop-color:#FAFBFB"></stop>
            <stop offset="0.532" style="stop-color:#EDF1F4"></stop>
            <stop offset="0.675" style="stop-color:#DDE5E9"></stop>
            <stop offset="0.799" style="stop-color:#C7D3DA"></stop>
            <stop offset="0.908" style="stop-color:#ADBDC7"></stop>
            <stop offset="1" style="stop-color:#92A5B0"></stop>
        </linearGradient>
        <path class="st3" d="M45,0.8l27,26.7H45V0.8z"></path>
        <path class="st4" d="M45,0.8l27,26.7H45V0.8z"></path>
    </g>
</svg>
